assets/bg/bg-features-django.svg

<svg height="489" viewBox="0 0 566 489" width="566" xmlns="http://www.w3.org/2000/svg"><g fill="none" fill-rule="evenodd" transform="translate(-1 -1)"><g fill="#89e7c3"><path d="m216.858 85.895c-153.995-.31-207.525 22.034-215.1 86.779-6.042 51.641 23.856 79.556 96.164 88.028 10.491 1.225 20.772 2.173 31.19 2.872-5.14-48.646 14.703-99.356 59.531-149.628 9.243-10.367 18.66-19.714 28.215-28.051zm0 0"/><path d="m515.249 150.597-26.897 30.167c18.099-.104 37.624-.875 60.093-2.31l18.04-177.441c-115.746-.413-181.365 8.714-214.958 34.224 38.159 3.215 76.207 20.911 112.406 53.189 21.732 19.379 36.836 36.963 51.316 62.171 0 0-14.48-25.208 0 0zm0 0"/><path d="m198.649 383.627c-8.023-7.154-15.347-14.427-21.997-21.805-9.162 12.33-13.719 27.101-14.708 44.782-2.916 52.145 28.759 78.313 101.772 82.405 39.991 2.227 76.679.803 129.321-4.977l9.997-179.061c-9.186.385-18.039.819-26.598 1.302l-113.1 126.836c-28.217-19.021-45.253-32.154-64.687-49.482 0 0 19.434 17.328 0 0zm0 0"/></g><path d="m419.737 177.541c-72.351-7.371-102.637-34.804-97.379-86.475 2.436-23.965 11.252-42.225 29.169-55.829-45.727-3.854-91.614 13.092-134.669 50.658 9.798.02 19.99.129 30.615.327l-20.74 177.335c-38.712 1.889-68.709 1.95-97.622.018 3.598 34.051 19.441 67.085 47.541 98.248 25.014-33.656 84.438-49.073 199.786-55.548l111.914-125.51c-24.246.139-45.926-.92-68.615-3.224 0 0 22.689 2.304 0 0zm0 0" fill="#3eb88a"/><path d="m226.733 263.557 20.74-177.335c-10.625-.197-20.817-.307-30.615-.327-9.555 8.337-18.972 17.684-28.215 28.051-44.828 50.272-64.671 100.982-59.532 149.628 28.912 1.933 58.91 1.871 97.622-.017 0 0-38.712 1.888 0 0zm0 0" fill="#b0cb2b"/><path d="m247.473 86.222c-10.625-.197-20.817-.307-30.615-.327-9.555 8.337-18.972 17.684-28.215 28.051-44.828 50.272-64.671 100.982-59.532 149.628 28.912 1.933 58.91 1.871 97.622-.017zm0 0" fill="#0baa6e"/><path d="m322.358 91.065c-5.258 51.671 25.028 79.104 97.379 86.475 22.688 2.304 44.369 3.364 68.614 3.224l26.897-30.167c-14.48-25.208-29.584-42.792-51.315-62.171-36.199-32.279-74.247-49.975-112.406-53.189-17.917 13.603-26.733 31.863-29.169 55.828 0 0 2.436-23.965 0 0zm0 0" fill="#b0cb2b"/><path d="m322.358 91.065c-5.258 51.671 25.028 79.104 97.379 86.475 22.688 2.304 44.369 3.364 68.614 3.224l26.897-30.167c-14.48-25.208-29.584-42.792-51.315-62.171-36.199-32.279-74.247-49.975-112.406-53.189-17.917 13.603-26.733 31.863-29.169 55.828 0 0 2.436-23.965 0 0zm0 0" fill="#0baa6e"/><path d="m176.652 361.822c6.65 7.378 13.974 14.65 21.997 21.805 19.435 17.328 36.47 30.461 64.688 49.483l113.1-126.836c-115.347 6.475-174.771 21.892-199.785 55.548 0 0 25.014-33.656 0 0zm0 0" fill="#b0cb2b"/><path d="m176.652 361.822c6.65 7.378 13.974 14.65 21.997 21.805 19.435 17.328 36.47 30.461 64.688 49.483l113.1-126.836c-115.347 6.475-174.771 21.892-199.785 55.548 0 0 25.014-33.656 0 0zm0 0" fill="#0baa6e"/></g></svg>

<?xml version="1.0" encoding="UTF-8" standalone="no"?>
<svg width="566px" height="489px" viewBox="0 0 566 489" version="1.1" xmlns="http://www.w3.org/2000/svg" xmlns:xlink="http://www.w3.org/1999/xlink" xmlns:sketch="http://www.bohemiancoding.com/sketch/ns">
    <title>bg-features</title>
    <description>Created with Sketch (http://www.bohemiancoding.com/sketch)</description>
    <defs></defs>
    <g id="Page-1" stroke="none" stroke-width="1" fill="none" fill-rule="evenodd" sketch:type="MSPage">
        <g id="bg-features" sketch:type="MSLayerGroup" transform="translate(-1.000000, -1.000000)">
            <path d="M216.858,85.895 C62.863,85.585 9.333,107.929 1.758,172.674 C-4.284,224.315 25.614,252.23 97.922,260.702 C108.413,261.927 118.694,262.875 129.112,263.574 C123.972,214.928 143.815,164.218 188.643,113.946 C197.886,103.579 207.303,94.232 216.858,85.895 Z M216.858,85.895" id="Shape" fill="#89E7C3" sketch:type="MSShapeGroup"></path>
            <path d="M515.249,150.597 L488.352,180.764 C506.451,180.66 525.976,179.889 548.445,178.454 L566.485,1.013 C450.739,0.6 385.12,9.727 351.527,35.237 C389.686,38.452 427.734,56.148 463.933,88.426 C485.665,107.805 500.769,125.389 515.249,150.597 C515.249,150.597 500.769,125.389 515.249,150.597 L515.249,150.597 L515.249,150.597 Z M515.249,150.597" id="Shape" fill="#89E7C3" sketch:type="MSShapeGroup"></path>
            <path d="M198.649,383.627 C190.626,376.473 183.302,369.2 176.652,361.822 C167.49,374.152 162.933,388.923 161.944,406.604 C159.028,458.749 190.703,484.917 263.716,489.009 C303.707,491.236 340.395,489.812 393.037,484.032 L403.034,304.971 C393.848,305.356 384.995,305.79 376.436,306.273 L263.336,433.109 C235.119,414.088 218.083,400.955 198.649,383.627 C198.649,383.627 218.083,400.955 198.649,383.627 L198.649,383.627 L198.649,383.627 Z M198.649,383.627" id="Shape" fill="#89E7C3" sketch:type="MSShapeGroup"></path>
            <path d="M419.737,177.541 C347.386,170.17 317.1,142.737 322.358,91.066 C324.794,67.101 333.61,48.841 351.527,35.237 C305.8,31.383 259.913,48.329 216.858,85.895 C226.656,85.915 236.848,86.024 247.473,86.222 L226.733,263.557 C188.021,265.446 158.024,265.507 129.111,263.575 C132.709,297.626 148.552,330.66 176.652,361.823 C201.666,328.167 261.09,312.75 376.438,306.275 L488.352,180.765 C464.106,180.904 442.426,179.845 419.737,177.541 C419.737,177.541 442.426,179.845 419.737,177.541 L419.737,177.541 L419.737,177.541 Z M419.737,177.541" id="Shape" fill="#3EB88A" sketch:type="MSShapeGroup"></path>
            <path d="M226.733,263.557 L247.473,86.222 C236.848,86.025 226.656,85.915 216.858,85.895 C207.303,94.232 197.886,103.579 188.643,113.946 C143.815,164.218 123.972,214.928 129.111,263.574 C158.023,265.507 188.021,265.445 226.733,263.557 C226.733,263.557 188.021,265.445 226.733,263.557 L226.733,263.557 L226.733,263.557 Z M226.733,263.557" id="Shape" fill="#B0CB2B" sketch:type="MSShapeGroup"></path>
            <path d="M247.473,86.222 C236.848,86.025 226.656,85.915 216.858,85.895 C207.303,94.232 197.886,103.579 188.643,113.946 C143.815,164.218 123.972,214.928 129.111,263.574 C158.023,265.507 188.021,265.445 226.733,263.557 L247.473,86.222 Z M247.473,86.222" id="Shape" fill="#0BAA6E" sketch:type="MSShapeGroup"></path>
            <path d="M322.358,91.065 C317.1,142.736 347.386,170.169 419.737,177.54 C442.425,179.844 464.106,180.904 488.351,180.764 L515.248,150.597 C500.768,125.389 485.664,107.805 463.933,88.426 C427.734,56.147 389.686,38.451 351.527,35.237 C333.61,48.84 324.794,67.1 322.358,91.065 C322.358,91.065 324.794,67.1 322.358,91.065 L322.358,91.065 L322.358,91.065 Z M322.358,91.065" id="Shape" fill="#B0CB2B" sketch:type="MSShapeGroup"></path>
            <path d="M322.358,91.065 C317.1,142.736 347.386,170.169 419.737,177.54 C442.425,179.844 464.106,180.904 488.351,180.764 L515.248,150.597 C500.768,125.389 485.664,107.805 463.933,88.426 C427.734,56.147 389.686,38.451 351.527,35.237 C333.61,48.84 324.794,67.1 322.358,91.065 C322.358,91.065 324.794,67.1 322.358,91.065 L322.358,91.065 L322.358,91.065 Z M322.358,91.065" id="Shape" fill="#0BAA6E" sketch:type="MSShapeGroup"></path>
            <path d="M176.652,361.822 C183.302,369.2 190.626,376.472 198.649,383.627 C218.084,400.955 235.119,414.088 263.337,433.11 L376.437,306.274 C261.09,312.749 201.666,328.166 176.652,361.822 C176.652,361.822 201.666,328.166 176.652,361.822 L176.652,361.822 L176.652,361.822 Z M176.652,361.822" id="Shape" fill="#B0CB2B" sketch:type="MSShapeGroup"></path>
            <path d="M176.652,361.822 C183.302,369.2 190.626,376.472 198.649,383.627 C218.084,400.955 235.119,414.088 263.337,433.11 L376.437,306.274 C261.09,312.749 201.666,328.166 176.652,361.822 C176.652,361.822 201.666,328.166 176.652,361.822 L176.652,361.822 L176.652,361.822 Z M176.652,361.822" id="Shape" fill="#0BAA6E" sketch:type="MSShapeGroup"></path>
        </g>
    </g>
</svg>
